common/svg/status-canceled-icon.svg

<svg fill="none" height="20" viewBox="0 0 20 20" width="20" xmlns="http://www.w3.org/2000/svg"><path clip-rule="evenodd" d="m0 10c0-5.5 4.5-10 10-10s10 4.5 10 10-4.5 10-10 10-10-4.5-10-10zm6-1c-.55228 0-1 .44771-1 1 0 .5523.44772 1 1 1h8c.5523 0 1-.4477 1-1 0-.55229-.4477-1-1-1z" fill="#000" fill-rule="evenodd"/></svg>

<svg width="20" height="20" viewBox="0 0 20 20" fill="none" xmlns="http://www.w3.org/2000/svg">
<path fill-rule="evenodd" clip-rule="evenodd" d="M0 10C0 4.5 4.5 0 10 0C15.5 0 20 4.5 20 10C20 15.5 15.5 20 10 20C4.5 20 0 15.5 0 10ZM6 9C5.44772 9 5 9.44771 5 10C5 10.5523 5.44772 11 6 11H14C14.5523 11 15 10.5523 15 10C15 9.44771 14.5523 9 14 9H6Z" fill="black"/>
</svg>
